X:1
T:Adagio cantabile
T:from Piano Sonata No. 8 in C minor, “Pathétique”
T:Ludwig van Beethoven
%%score { ( 1 4 ) | ( 2 3 ) }
L:1/8
Q:1/4=31
M:2/4
K:Ab
V:1 bass nm="Piano" snm="Pno."
V:4 bass 
V:2 bass 
V:3 bass 
V:1
!p! A,/E,/A,/E,/ G,/E,/G,/E,/ | A,/E,/A,/E,/ B,/E,/B,/E,/ | A,/E,/B,/E,/ C/A,/=D/A,/ | %3
 G,/B,/G,/B,/ G,/B,/G,/B,/ | G,/B,/G,/B,/ G,/E,/G,/E,/ | A,/E,/A,/E,/ E,/C,/E,/C,/ | %6
 F,/D,/F,/D,/ D,/D,/D,/D,/ | (D,/E,/D,/E,/ C,) z |[K:treble] C/E/C/E/ B,/E/B,/E/ | %9
 E/A/E/A/ E/B/E/B/ | E/A/E/B/ A/c/A/=d/ | G/B/G/B/ G/B/G/B/ | G/B/G/B/ G/E/G/E/ | %13
 A/E/A/E/ E/C/E/C/ | F/D/F/D/ D/D/D/D/ | D/E/D/E/ C z | z4 | z4 | z4 | %19
 [B,FA]/[B,FA]/[B,FA]/[B,FA]/ [=B,FA]/[F,A,B,]/[B,=DA]/[B,DA]/ | %20
 [CEG]/[CEG]/[CEG]/[CEG]/ [A,E]/[A,E]/[A,E]/[A,E]/ | z/ [B,EG]/[B,EG]/[B,EG]/ z2 | %22
 z3/2[K:bass] (B,/ G,/B,/G,/E,/) | [F,A,][F,A,][F,A,][=D,F,A,] | [B,,E,G,] z z2 | [F,A,]2 [F,A,]2 | %26
 G,4- | G,4 |!p! ([C,A,]/E,/A,/E,/) (A,/E,/A,/E,/) | A,/E,/A,/E,/ B,/E,/B,/E,/ | %30
 A,/E,/B,/E,/ C/A,/=D/A,/ | G,/B,/G,/B,/ G,/B,/G,/B,/ | G,/B,/G,/B,/ G,/E,/G,/E,/ | %33
 A,/E,/A,/E,/ E,/C,/E,/C,/ | F,/D,/F,/D,/ D,/D,/D,/D,/ | D,/E,/D,/E,/ C, z | %36
[K:treble]!pp! (3[_CE]/[CE]/[CE]/(3[CE]/[CE]/[CE]/ (3[CE]/[CE]/[CE]/(3[CE]/[CE]/[CE]/ | %37
 (3[DE]/[DE]/[DE]/(3[DE]/[DE]/[DE]/ (3[DE]/[DE]/[DE]/(3[DE]/[DE]/[DE]/ | %38
 (3[_CE]/[CE]/[CE]/(3[CE]/[CE]/[CE]/ (3[CE]/[CE]/[CE]/(3[CE]/[CE]/[CE]/ | %39
 (3[B,E]/[B,E]/[B,E]/(3[B,E]/[B,E]/[B,E]/ (3[G,B,E]/[G,B,E]/[G,B,E]/(3[G,B,E]/[G,B,E]/[G,B,E]/ | %40
 (3[_CE]/[CE]/[CE]/(3[CE]/[CE]/[CE]/ (3[CE]/[CE]/[CE]/(3[CE]/[CE]/[CE]/ |!p! ^F!pp! z!p! =B!pp! z | %42
!p! =e!pp! z =B[K:bass][^F,=A,=B,] | %43
!p! (3[^G,=B,]/[G,B,]/[G,B,]/(3[G,B,]/[G,B,]/[G,B,]/ (3[G,B,]/[G,B,]/[G,B,]/(3[G,B,]/[G,B,]/[G,B,]/ | %44
!pp! (3[^G,=B,]/[G,B,]/[G,B,]/(3[G,B,]/[G,B,]/[G,B,]/ (3[G,B,]/[G,B,]/[G,B,]/(3[G,B,]/[G,B,]/[G,B,]/ | %45
 (3[=A,=B,]/[A,B,]/[A,B,]/(3[A,B,]/[A,B,]/[A,B,]/ (3[A,B,]/[A,B,]/[A,B,]/(3[A,B,]/[A,B,]/[A,B,]/ | %46
 (3[^G,=B,]/[G,B,]/[G,B,]/(3[G,B,]/[G,B,]/[G,B,]/ (3[G,B,]/[G,B,]/[G,B,]/(3[G,B,]/[G,B,]/[G,B,]/ | %47
 (3[=D,_A,_C]/[D,A,C]/[D,A,C]/(3[D,A,C]/[D,A,C]/[D,A,C]/ (3[D,A,C]/[D,A,C]/[D,A,C]/(3[D,A,C]/[D,A,C]/[D,A,C]/ | %48
 (3[=D,A,_C]/[D,A,C]/[D,A,C]/(3[D,A,C]/[D,A,C]/[D,A,C]/ (3[D,A,C]/[D,A,C]/[D,A,C]/(3[D,A,C]/[D,A,C]/[D,A,C]/ | %49
 (3[_D,A,_B,]/[D,A,B,]/[D,A,B,]/(3[D,A,B,]/[D,A,B,]/[D,A,B,]/ (3[D,G,B,]/[D,G,B,]/[D,G,B,]/(3[D,E,G,B,]/[D,E,G,B,]/[D,E,G,B,]/ | %50
!p! (3(C,/.E,/).E,/(3(A,/.E,/).E,/ (3(G,/.E,/).E,/(3(G,/.E,/).E,/ | %51
 (3(A,/.E,/).E,/(3(A,/.E,/).E,/ (3(.B,/.E,/).E,/(3(B,/.E,/).E,/ | %52
 (3(A,/.E,/).E,/(3(B,/.E,/).E,/ (3(C/.A,/).A,/(3(=D/.A,/).A,/ | %53
 (3(G,/.B,/).B,/(3(G,/.B,/).B,/ (3(G,/.B,/).B,/(3(G,/.B,/).B,/ | %54
 (3(G,/B,/)B,/(3(G,/B,/)B,/ (3(G,/E,/)E,/(3(G,/E,/)E,/ | %55
 (3(A,/E,/)E,/(3(A,/E,/)E,/ (3(E,/C,/)C,/(3(E,/C,/)C,/ | %56
 (3(F,/D,/)D,/(3(F,/D,/)D,/ (3(G,/D,/)D,/(3D,/D,/D,/ | (3(D,/E,/)E,/(3(D,/E,/)E,/ C, z | %58
[K:treble] (3(C/E/)E/(3(C/E/)E/ (3(B,/E/)E/(3(B,/E/)E/ | %59
 (3(E/A/)A/(3(E/A/)A/ (3(E/B/)B/(3(E/B/)e/ | (3(E/A/)A/(3(E/B/)B/ (3(A/c/)c/(3(A/=d/)d/ | %61
 (3(G/B/)B/(3(G/B/)B/ (3(G/B/)B/(3(G/B/)B/ | (3(G/B/)B/(3(G/B/)B/ (3(G/E/)E/(3(G/E/)E/ | %63
 (3(A/E/)E/(3(A/E/)E/ (3(E/C/)C/(3(E/C/)C/ | (3(F/D/)D/(3(F/D/)D/ (3(F/D/)D/(3D/D/D/ |!pp! C z z2 | %66
 z4 | z2 z (e/>=e/) | f-(3(f/_e/)d/ (3c/B/A/(3(G/d/G/) | A z ([EG]2 | [A,A]) z G2 | %71
 z2[K:bass] G,2 |!pp! z/ z/ [C,E,A,]/ z/[Q:1/4=20] !fermata![A,,C,A,]2 |] %73
V:2
 (A,,2 D,2 | C,2 G,,2) | (A,,G,,F,,F,) | (E,2 E,,2 | _D,,2 D,2) | (C,2 F,,2 | B,,,2 E,,2) | %7
 A,,,A,, A,,, z | A,/E,/A,/E,/ G,/E,/G,/E,/ | A,/E,/A,/E,/ G,/E,/G,/E,/ | %10
 A,/E,/G,/E,/ F,/A,,/F,/A,,/ | (E,,/G,,/B,,/E,/ G,/B,/G,/B,/) | (D,,/G,,/B,,/D,/) (G,/B,/G,/D,/) | %13
 C,/E,/C,/E,/ C,/F,/C,/F,/ | D,/F,/D,/F,/ B,,/E,/B,,/E,/ | z/ E,/G,/E,/ A, z | z/ C/C/C/ C/C/C/C/ | %17
 [=E,G,C]/[E,G,C]/[E,G,C]/[E,G,C]/ [F,A,C]/[F,A,C]/[F,A,C]/[F,A,C]/ | %18
 [G,B,=E]/[G,B,E]/[G,B,E]/[G,B,E]/ [A,CF]/[A,CF]/[A,CF]/[A,CF]/ | z4 | z4 | %21
 z2 z/ [B,,=D,A,]/[B,,D,A,]/[B,,D,A,]/ | [E,G,] z z2 | B,,,4 | E,, z/ (B,,/ G,,/B,,/G,,/E,,/) | %25
 B,,,2 B,,2 | E,,4- | E,,4 | ([A,,,A,,]2 D,2 | C,2 G,,2) | (A,,G,,F,,F,) | (E,2 E,,2 | D,,2 D,2) | %33
 (C,2 F,,2 | B,,,2 E,,2) | A,,,A,, A,,, z | [A,,A,]2 z2 | %37
 B,-(3B,/(B,/=A,/ (3.B,/)(.B,/._A,/)(3(.G,/.F,/.E,/) | A, z z2 | %39
 E,-(3E,/(E,/=D,/ (3.E,/)(._F,/.E,/)(3(._D,/._C,/.B,,/) | A,, z z2 | %41
 (3[=A,,=B,,^D,^F,]/[A,,B,,D,F,]/[A,,B,,D,F,]/(3[A,,B,,D,F,]/[A,,B,,D,F,]/[A,,B,,D,F,]/ (3[^G,,B,,=E,^G,]/[G,,B,,E,G,]/[G,,B,,E,G,]/(3[G,,B,,E,G,]/[G,,B,,E,G,]/[G,,B,,E,G,]/ | %42
 (3[^C,=E,^F,^A,]/[C,E,F,A,]/[C,E,F,A,]/(3[C,E,F,A,]/[C,E,F,A,]/[C,E,F,A,]/ (3[=B,,E,^G,=B,]/[B,,E,G,B,]/[B,,E,G,B,]/(3[=B,,,B,,]/[B,,,B,,]/[B,,,B,,]/ | %43
 [=E,,=E,] z z2 | [=E,,=E,]2 z2 | ^F,-(3F,/(F,/^E,/ (3.F,/)(.F,/.=E,/)(3(.^D,/.^C,/.=B,,/) | %46
 =E, z z2 | (3z/ .F,,,/.A,,,/(3._C,,/.=D,,/.F,,/ _A,, z | %48
 (3z/ .F,,,/.A,,,/(3._C,,/.=D,,/.F,,/ A,, z | (3z/ ._F,,/.A,,/._B,, (3z/ .E,,/.G,,/.B,, | %50
 ([A,,,A,,]2 D,2 | C,2 G,,2) | (A,,G,,F,,F,) | (E,2 E,,2 | D,,2 D,2) | (C,2 F,,2 | B,,,2 E,,2) | %57
 A,,,A,, A,,, z | (3(A,/E,/)E,/(3(A,/E,/)E,/ (3(G,/E,/)E,/(3(G,/E,/)E,/ | %59
 (3(A,/E,/)E,/(3(A,/E,/)E,/ (3(G,/E,/)E,/(3(G,/E,/)E,/ | %60
 (3(A,/E,/)E,/(3(G,/E,/)E,/ (3(F,/A,,/)A,,/(3(F,/A,,/)A,,/ | (3.E,,/.G,,/.B,,/(3.E,/.G,/.B,/ E2 | %62
 (3.D,,/.G,,/.B,,/(3.D,/.G,/.B,/ D2 | (C2 F,2 | B,,2) (3(B,,/E,/)E,/(3(E,,/E,/)E,/ | %65
 (3A,,/(.E,/.E,/)(3(.E,/.E,/.E,/) (3E,/E,/E,/(3E,/E,/E,/ | %66
 (3[E,,D,E,]/[E,,D,E,]/[E,,D,E,]/(3[E,,D,E,]/[E,,D,E,]/[E,,D,E,]/ (3[E,,D,E,]/[E,,D,E,]/[E,,D,E,]/(3[E,,D,E,]/[E,,D,E,]/[E,,D,E,]/ | %67
 (3[A,,C,E,]/(.E,/.E,/)(3(.E,/.E,/.E,/) (3E,/E,/E,/(3E,/E,/E,/ | %68
 (3[E,,D,E,]/[E,,D,E,]/[E,,D,E,]/(3[E,,D,E,]/[E,,D,E,]/[E,,D,E,]/ (3[E,,D,E,]/[E,,D,E,]/[E,,D,E,]/(3[E,,D,E,]/[E,,D,E,]/[E,,D,E,]/ | %69
 [A,,C,E,] z z2 | z2 ([E,D]2 | [A,C]) z ([E,,D,]2 | [A,,C,]/) z/ A,,,/ z/ !fermata!A,,,2 |] %73
V:3
 x4 | x4 | x4 | x4 | x4 | x4 | x4 | x4 | (A,,2 D,2 | C,2 G,,2) | (A,,G,,F,,)F,, | x4 | x4 | %13
 C,C, (F,,2 | B,,2 E,,2) | A,,3 z | x4 | x4 | x4 | x4 | x4 | x4 | x4 | x4 | x4 | x4 | x4 | x4 | %28
 x4 | x4 | x4 | x4 | x4 | x4 | x4 | x4 | x4 | x4 | x4 | x4 | x4 | x4 | x4 | x4 | x4 | x4 | x4 | %47
 x4 | x4 | x4 | x4 | x4 | x4 | x4 | x4 | x4 | x4 | x4 | (A,,2 D,2 | C,2 G,,2) | (A,,G,,F,,)F,, | %61
 x4 | x4 | x4 | x2 E,,E,, | x4 | x4 | x4 | x4 | x4 | x4 | x4 | x4 |] %73
V:4
 x4 | x4 | x4 | x4 | x4 | x4 | x4 | x4 |[K:treble] x4 | x4 | x4 | x4 | x4 | x4 | x4 | x4 | x4 | %17
 x4 | x4 | x4 | x4 | x4 | x3/2[K:bass] x5/2 | (E,/=D,/)(D,/C,/) (C,/=B,,/)(B,,/_B,,/) | x4 | x4 | %26
 (F,/_F,/)(F,/E,/) (E,/=D,/)(D,/E,/) | (E,/_F,/)(F,/E,/)!pp! (E,/=D,/)(D,/_D,/) | x4 | x4 | x4 | %31
 x4 | x4 | x4 | x4 | x4 |[K:treble] x4 | x4 | x4 | x4 | x4 | x4 | x3[K:bass] x | x4 | x4 | x4 | %46
 x4 | x4 | x4 | x4 | x4 | x4 | x4 | x4 | x4 | x4 | x4 | x4 |[K:treble] x4 | x4 | x4 | x4 | x4 | %63
 x4 | x4 | x4 | x4 | x4 | x4 | x4 | x4 | x2[K:bass] x2 | x4 |] %73

